Icons/com_instagram_android.svg

<svg viewBox="0 0 48 48" xmlns:xlink="http://www.w3.org/1999/xlink">
 <defs>
  <linearGradient id="0">
   <stop stop-opacity="0"/>
   <stop offset="1"/>
  </linearGradient>
  <linearGradient xlink:href="#0" id="1" gradientUnits="userSpaceOnUse" gradientTransform="translate(4e-7,-48)" y1="47" x2="0" y2="1"/>
  <clipPath id="2">
   <g transform="translate(0,-1004.3622)">
    <rect rx="4" y="1005.36" x="1" height="46" width="46" fill="#1890d0"/>
   </g>
  </clipPath>
  <clipPath id="3">
   <g transform="translate(0,-1004.3622)">
    <rect rx="4" y="1005.36" x="1" height="46" width="46" fill="#1890d0"/>
   </g>
  </clipPath>
 </defs>
 <g>
  <g transform="translate(0,-1004.3622)">
   <path d="m 5,1006.3622 c -2.216,0 -4,1.784 -4,4 l 0,37.25 c 0,2.216 1.784,4 4,4 l 38,0 c 2.216,0 4,-1.784 4,-4 l 0,-37.25 c 0,-2.216 -1.784,-4 -4,-4 l -38,0 z m -4,41.5 0,0.5 c 0,2.216 1.784,4 4,4 l 38,0 c 2.216,0 4,-1.784 4,-4 l 0,-0.5 c 0,2.216 -1.784,4 -4,4 l -38,0 c -2.216,0 -4,-1.784 -4,-4 z" opacity="0.02"/>
   <path d="m 1,1047.6122 0,0.25 c 0,2.216 1.784,4 4,4 l 38,0 c 2.216,0 4,-1.784 4,-4 l 0,-0.25 c 0,2.216 -1.784,4 -4,4 l -38,0 c -2.216,0 -4,-1.784 -4,-4 z" opacity="0.05"/>
   <rect width="46" height="46" x="1" y="1005.61" rx="4" opacity="0.1"/>
  </g>
 </g>
 <g>
  <g transform="translate(0,-1004.3622)">
   <rect rx="4" y="1005.36" x="1" height="46" width="46" fill="#845950"/>
  </g>
 </g>
 <g>
  <rect transform="scale(1,-1)" width="46" height="46" x="1" y="-46.998" rx="4" opacity="0.1" fill="url(#1)"/>
 </g>
 <g>
  <g clip-path="url(#2)">
   <g opacity="0.1">
    <path d="M 0 24 L 0 48 L 48 48 L 48 24 L 0 24 z "/>
    <g>
     <path d="m 10,0 -1,0 0,24 1,0 z"/>
     <path d="m 11,0 -1,0 0,24 1,0 z"/>
     <path d="m 12,0 -1,0 0,24 1,0 z"/>
     <path d="m 13,0 -1,0 0,24 1,0 z"/>
     <path d="M 34 24 C 34 29.523438 29.523438 34 24 34 C 18.476562 34 14 29.523438 14 24 C 14 18.476562 18.476562 14 24 14 C 29.523438 14 34 18.476562 34 24 Z M 34 24 "/>
     <path d="M 32 24 C 32 28.417969 28.417969 32 24 32 C 19.582031 32 16 28.417969 16 24 C 16 19.582031 19.582031 16 24 16 C 28.417969 16 32 19.582031 32 24 Z M 32 24 "/>
     <path d="M 30 24 C 30 27.3125 27.3125 30 24 30 C 20.6875 30 18 27.3125 18 24 C 18 20.6875 20.6875 18 24 18 C 27.3125 18 30 20.6875 30 24 Z M 30 24 "/>
     <path d="M 27 24 C 27 25.65625 25.65625 27 24 27 C 22.34375 27 21 25.65625 21 24 C 21 22.34375 22.34375 21 24 21 C 25.65625 21 27 22.34375 27 24 Z M 27 24 "/>
     <path d="M 28 21 C 28 21.550781 27.550781 22 27 22 C 26.449219 22 26 21.550781 26 21 C 26 20.449219 26.449219 20 27 20 C 27.550781 20 28 20.449219 28 21 Z M 28 21 " fill-opacity="0.302"/>
     <path d="M 22 25 C 22 25.550781 21.554688 26 21 26 C 20.449219 26 20 25.550781 20 25 C 20 24.449219 20.449219 24 21 24 C 21.554688 24 22 24.449219 22 25 Z M 22 25 " fill-opacity="0.302"/>
     <path d="M 30.886719 9 L 35.113281 9 C 35.601562 9 36 9.398438 36 9.886719 L 36 14.113281 C 36 14.601562 35.601562 15 35.113281 15 L 30.886719 15 C 30.398438 15 30 14.601562 30 14.113281 L 30 9.886719 C 30 9.398438 30.398438 9 30.886719 9 Z M 30.886719 9 "/>
     <path d="M 35 12 C 35 13.105469 34.105469 14 33 14 C 31.894531 14 31 13.105469 31 12 C 31 10.894531 31.894531 10 33 10 C 34.105469 10 35 10.894531 35 12 Z M 35 12 "/>
    </g>
   </g>
  </g>
 </g>
 <g>
  <g clip-path="url(#3)">
   <g transform="translate(0,-1)">
    <path d="M 0 24 L 0 48 L 48 48 L 48 24 L 0 24 z " fill="#dbc3ae"/>
    <g>
     <path d="m 10,0 -1,0 0,24 1,0 z" fill="#ff306e"/>
     <path d="m 11,0 -1,0 0,24 1,0 z" fill="#ffd468"/>
     <path d="m 12,0 -1,0 0,24 1,0 z" fill="#7de6a8"/>
     <path d="m 13,0 -1,0 0,24 1,0 z" fill="#4c9cff"/>
     <path d="M 34 24 C 34 29.523438 29.523438 34 24 34 C 18.476562 34 14 29.523438 14 24 C 14 18.476562 18.476562 14 24 14 C 29.523438 14 34 18.476562 34 24 Z M 34 24 " fill="#e5d6c8"/>
     <path d="M 32 24 C 32 28.417969 28.417969 32 24 32 C 19.582031 32 16 28.417969 16 24 C 16 19.582031 19.582031 16 24 16 C 28.417969 16 32 19.582031 32 24 Z M 32 24 " fill="#5b5b5b"/>
     <path d="M 30 24 C 30 27.3125 27.3125 30 24 30 C 20.6875 30 18 27.3125 18 24 C 18 20.6875 20.6875 18 24 18 C 27.3125 18 30 20.6875 30 24 Z M 30 24 " fill="#84b296"/>
     <path d="M 27 24 C 27 25.65625 25.65625 27 24 27 C 22.34375 27 21 25.65625 21 24 C 21 22.34375 22.34375 21 24 21 C 25.65625 21 27 22.34375 27 24 Z M 27 24 " fill="#3c3c3c"/>
     <path d="M 28 21 C 28 21.550781 27.550781 22 27 22 C 26.449219 22 26 21.550781 26 21 C 26 20.449219 26.449219 20 27 20 C 27.550781 20 28 20.449219 28 21 Z M 28 21 " fill="#ffffff" fill-opacity="0.302"/>
     <path d="M 22 25 C 22 25.550781 21.554688 26 21 26 C 20.449219 26 20 25.550781 20 25 C 20 24.449219 20.449219 24 21 24 C 21.554688 24 22 24.449219 22 25 Z M 22 25 " fill="#ffffff" fill-opacity="0.302"/>
     <path d="M 30.886719 9 L 35.113281 9 C 35.601562 9 36 9.398438 36 9.886719 L 36 14.113281 C 36 14.601562 35.601562 15 35.113281 15 L 30.886719 15 C 30.398438 15 30 14.601562 30 14.113281 L 30 9.886719 C 30 9.398438 30.398438 9 30.886719 9 Z M 30.886719 9 " fill="#2f353e"/>
     <path d="M 35 12 C 35 13.105469 34.105469 14 33 14 C 31.894531 14 31 13.105469 31 12 C 31 10.894531 31.894531 10 33 10 C 34.105469 10 35 10.894531 35 12 Z M 35 12 " fill="#282828"/>
    </g>
   </g>
  </g>
 </g>
 <g>
  <g transform="translate(0,-1004.3622)">
   <path d="m 1,1043.3622 0,4 c 0,2.216 1.784,4 4,4 l 38,0 c 2.216,0 4,-1.784 4,-4 l 0,-4 c 0,2.216 -1.784,4 -4,4 l -38,0 c -2.216,0 -4,-1.784 -4,-4 z" opacity="0.1"/>
  </g>
 </g>
</svg>

<svg viewBox="0 0 48 48"><defs><linearGradient id="linearGradient3764" x1="1" x2="47" gradientUnits="userSpaceOnUse" gradientTransform="translate(-48.000001,0.00221467)"><stop stop-color="#785048" stop-opacity="1"/><stop offset="1" stop-color="#845950" stop-opacity="1"/></linearGradient><clipPath id="clipPath-999787667"><g transform="translate(0,-1004.3622)"><rect rx="4" y="1005.36" x="1" height="46" width="46" fill="#1890d0"/></g></clipPath><clipPath id="clipPath-028674728"><g transform="translate(0,-1004.3622)"><rect rx="4" y="1005.36" x="1" height="46" width="46" fill="#1890d0"/></g></clipPath></defs><g><path d="m 1 43 l 0 0.25 c 0 2.216 1.784 4 4 4 l 38 0 c 2.216 0 4 -1.784 4 -4 l 0 -0.25 c 0 2.216 -1.784 4 -4 4 l -38 0 c -2.216 0 -4 -1.784 -4 -4 z m 0 0.5 l 0 0.5 c 0 2.216 1.784 4 4 4 l 38 0 c 2.216 0 4 -1.784 4 -4 l 0 -0.5 c 0 2.216 -1.784 4 -4 4 l -38 0 c -2.216 0 -4 -1.784 -4 -4 z" opacity="0.02"/><path d="m 1 43.25 l 0 0.25 c 0 2.216 1.784 4 4 4 l 38 0 c 2.216 0 4 -1.784 4 -4 l 0 -0.25 c 0 2.216 -1.784 4 -4 4 l -38 0 c -2.216 0 -4 -1.784 -4 -4 z" opacity="0.05"/><path d="m 1 43 l 0 0.25 c 0 2.216 1.784 4 4 4 l 38 0 c 2.216 0 4 -1.784 4 -4 l 0 -0.25 c 0 2.216 -1.784 4 -4 4 l -38 0 c -2.216 0 -4 -1.784 -4 -4 z" opacity="0.1"/></g><g><rect width="46" height="46" x="-47" y="1" rx="4" transform="matrix(0,-1,1,0,0,0)" fill="url(#linearGradient3764)" fill-opacity="1"/></g><g><g clip-path="url(#clipPath-999787667)"><g opacity="0.1"><!-- color: #845950 --><path d="m 0 24 l 0 24 l 48 0 l 0 -24 l -48 0 z" fill="#000"/><g><path d="m 10 0 -1 0 0 24 1 0 z" fill="#000"/><path d="m 11 0 -1 0 0 24 1 0 z" fill="#000"/><path d="m 12 0 -1 0 0 24 1 0 z" fill="#000"/><path d="m 13 0 -1 0 0 24 1 0 z" fill="#000"/><path d="m 34 24 c 0 5.523 -4.477 10 -10 10 c -5.523 0 -10 -4.477 -10 -10 c 0 -5.523 4.477 -10 10 -10 c 5.523 0 10 4.477 10 10 m 0 0" fill="#000"/><path d="m 32 24 c 0 4.418 -3.582 8 -8 8 c -4.418 0 -8 -3.582 -8 -8 c 0 -4.418 3.582 -8 8 -8 c 4.418 0 8 3.582 8 8 m 0 0" fill="#000"/><path d="m 30 24 c 0 3.313 -2.688 6 -6 6 c -3.313 0 -6 -2.688 -6 -6 c 0 -3.313 2.688 -6 6 -6 c 3.313 0 6 2.688 6 6 m 0 0" fill="#000"/><path d="m 27 24 c 0 1.656 -1.344 3 -3 3 c -1.656 0 -3 -1.344 -3 -3 c 0 -1.656 1.344 -3 3 -3 c 1.656 0 3 1.344 3 3 m 0 0" fill="#000"/><path d="m 28 21 c 0 0.551 -0.449 1 -1 1 c -0.551 0 -1 -0.449 -1 -1 c 0 -0.551 0.449 -1 1 -1 c 0.551 0 1 0.449 1 1 m 0 0" fill-opacity="0.302" fill="#000"/><path d="m 22 25 c 0 0.551 -0.445 1 -1 1 c -0.551 0 -1 -0.449 -1 -1 c 0 -0.551 0.449 -1 1 -1 c 0.555 0 1 0.449 1 1 m 0 0" fill-opacity="0.302" fill="#000"/><path d="m 30.887 9 l 4.227 0 c 0.488 0 0.887 0.398 0.887 0.887 l 0 4.227 c 0 0.488 -0.398 0.887 -0.887 0.887 l -4.227 0 c -0.488 0 -0.887 -0.398 -0.887 -0.887 l 0 -4.227 c 0 -0.488 0.398 -0.887 0.887 -0.887 m 0 0" fill="#000"/><path d="m 35 12 c 0 1.105 -0.895 2 -2 2 c -1.105 0 -2 -0.895 -2 -2 c 0 -1.105 0.895 -2 2 -2 c 1.105 0 2 0.895 2 2 m 0 0" fill="#000"/></g></g></g></g><g><g clip-path="url(#clipPath-028674728)"><g transform="translate(0,-1)"><!-- color: #845950 --><path d="m 0 24 l 0 24 l 48 0 l 0 -24 l -48 0 z" fill="#dbc3ae"/><g><path d="m 10 0 -1 0 0 24 1 0 z" fill="#ff306e"/><path d="m 11 0 -1 0 0 24 1 0 z" fill="#ffd468"/><path d="m 12 0 -1 0 0 24 1 0 z" fill="#7de6a8"/><path d="m 13 0 -1 0 0 24 1 0 z" fill="#4c9cff"/><path d="m 34 24 c 0 5.523 -4.477 10 -10 10 c -5.523 0 -10 -4.477 -10 -10 c 0 -5.523 4.477 -10 10 -10 c 5.523 0 10 4.477 10 10 m 0 0" fill="#e5d6c8"/><path d="m 32 24 c 0 4.418 -3.582 8 -8 8 c -4.418 0 -8 -3.582 -8 -8 c 0 -4.418 3.582 -8 8 -8 c 4.418 0 8 3.582 8 8 m 0 0" fill="#5b5b5b"/><path d="m 30 24 c 0 3.313 -2.688 6 -6 6 c -3.313 0 -6 -2.688 -6 -6 c 0 -3.313 2.688 -6 6 -6 c 3.313 0 6 2.688 6 6 m 0 0" fill="#84b296"/><path d="m 27 24 c 0 1.656 -1.344 3 -3 3 c -1.656 0 -3 -1.344 -3 -3 c 0 -1.656 1.344 -3 3 -3 c 1.656 0 3 1.344 3 3 m 0 0" fill="#3c3c3c"/><path d="m 28 21 c 0 0.551 -0.449 1 -1 1 c -0.551 0 -1 -0.449 -1 -1 c 0 -0.551 0.449 -1 1 -1 c 0.551 0 1 0.449 1 1 m 0 0" fill="#fff" fill-opacity="0.302"/><path d="m 22 25 c 0 0.551 -0.445 1 -1 1 c -0.551 0 -1 -0.449 -1 -1 c 0 -0.551 0.449 -1 1 -1 c 0.555 0 1 0.449 1 1 m 0 0" fill="#fff" fill-opacity="0.302"/><path d="m 30.887 9 l 4.227 0 c 0.488 0 0.887 0.398 0.887 0.887 l 0 4.227 c 0 0.488 -0.398 0.887 -0.887 0.887 l -4.227 0 c -0.488 0 -0.887 -0.398 -0.887 -0.887 l 0 -4.227 c 0 -0.488 0.398 -0.887 0.887 -0.887 m 0 0" fill="#2f353e"/><path d="m 35 12 c 0 1.105 -0.895 2 -2 2 c -1.105 0 -2 -0.895 -2 -2 c 0 -1.105 0.895 -2 2 -2 c 1.105 0 2 0.895 2 2 m 0 0" fill="#282828"/></g></g></g></g><g><g transform="translate(0,-1004.3622)"><path d="m 1 1043.36 0 4 c 0 2.216 1.784 4 4 4 l 38 0 c 2.216 0 4 -1.784 4 -4 l 0 -4 c 0 2.216 -1.784 4 -4 4 l -38 0 c -2.216 0 -4 -1.784 -4 -4 z" opacity="0.1"/></g></g></svg>
